dist/buttons/settings.svg

<svg width="81" height="80" viewBox="0 0 81 80" fill="none" xmlns="http://www.w3.org/2000/svg">
<circle cx="40" cy="40" r="14" stroke="#DDDDDD" stroke-width="4"/>
<path fill-rule="evenodd" clip-rule="evenodd" d="M33.047 30.2185C31.9539 30.9969 30.9969 31.9539 30.2185 33.0469L23.0295 25.8578L25.8579 23.0294L33.047 30.2185ZM38 28.1659C38.6504 28.0568 39.3186 28 40 28C40.6814 28 41.3496 28.0568 42 28.1659V18H38V28.1659ZM46.953 30.2185C48.0461 30.9969 49.0031 31.9539 49.7815 33.0469L56.9706 25.8578L54.1421 23.0294L46.953 30.2185ZM51.8341 38C51.9432 38.6504 52 39.3186 52 40C52 40.6814 51.9432 41.3496 51.8341 42H62V38H51.8341ZM49.7815 46.953C49.0031 48.0461 48.0461 49.0031 46.9531 49.7815L54.1421 56.9705L56.9706 54.1421L49.7815 46.953ZM42 51.8341C41.3496 51.9432 40.6814 52 40 52C39.3186 52 38.6504 51.9432 38 51.8341V62H42V51.8341ZM33.0469 49.7815C31.9539 49.0031 30.9969 48.0461 30.2185 46.953L23.0294 54.1421L25.8579 56.9705L33.0469 49.7815ZM28.1659 42C28.0568 41.3496 28 40.6814 28 40C28 39.3186 28.0568 38.6504 28.1659 38H18V42H28.1659Z" fill="#DDDDDD"/>
</svg>

<svg xmlns="http://www.w3.org/2000/svg" width="81" height="80" fill="none"><circle cx="40" cy="40" r="14" stroke="#DDD" stroke-width="4"/><path fill="#DDD" fill-rule="evenodd" d="M33.047 30.219a12 12 0 0 0-2.828 2.828l-7.19-7.19 2.829-2.828zM38 28.165a12.1 12.1 0 0 1 4 0V18h-4zm8.953 2.052a12 12 0 0 1 2.828 2.829l7.19-7.19-2.829-2.828zM51.834 38a12.1 12.1 0 0 1 0 4H62v-4zm-2.053 8.953a12 12 0 0 1-2.828 2.828l7.19 7.19 2.828-2.829zM42 51.834a12.1 12.1 0 0 1-4 0V62h4zm-8.953-2.053a12 12 0 0 1-2.828-2.828l-7.19 7.19 2.829 2.828zM28.166 42a12.1 12.1 0 0 1 0-4H18v4z" clip-rule="evenodd"/></svg>
